X:126
T: Alter Kirmesgesang
N: A0490
O: Europa, Mitteleuropa, Deutschland
N: Mitgetheilt durch Hohnbaum in Bueschings Woechentl. Nachrichten
N: 4, S. 39.
R: Romanze, Ballade, Lied
M: 2/4
L: 1/16
K: G
D2 | G3AB2c2 | d4B2z2 |
d2d2d2d2 | d2cBA2
AB | c2c2B2B2 | A4G2z2 |
G3AB2A2 | GABcd2d2 | e2
d2c2B2 | A2A2G2

@@@ Tune index: 439
